svg/icon/tnt.svg

<svg height="32" viewBox="0 0 32 32" width="32" xmlns="http://www.w3.org/2000/svg" xmlns:xlink="http://www.w3.org/1999/xlink"><defs><linearGradient id="a" x1="50%" x2="50%" y1="0%" y2="100%"><stop offset="0" stop-color="#fff" stop-opacity=".5"/><stop offset="1" stop-opacity=".5"/></linearGradient><circle id="b" cx="16" cy="15" r="15"/><filter id="c" height="111.7%" width="111.7%" x="-5.8%" y="-4.2%"><feOffset dy=".5" in="SourceAlpha" result="shadowOffsetOuter1"/><feGaussianBlur in="shadowOffsetOuter1" result="shadowBlurOuter1" stdDeviation=".5"/><feComposite in="shadowBlurOuter1" in2="SourceAlpha" operator="out" result="shadowBlurOuter1"/><feColorMatrix in="shadowBlurOuter1" values="0 0 0 0 0   0 0 0 0 0   0 0 0 0 0  0 0 0 0.199473505 0"/></filter><path id="d" d="m13.890625 20.5025869.15625 3.4974131s1.875-.3179466 3.828125 0l.15625-3.4974131zm-2.265625-2.7025464s5.46875-.47692 8.671875 0l.3125-3.8153598c-3.0424626-.2359386-6.0981624-.2359386-9.140625 0zm14.375-9.85634597s-10.46875-2.22562651-20 .15897332l.703125 4.37176635.859375-1.6692199s8.984375-1.35127322 17.03125 0l.78125 1.6692199z"/><filter id="e" height="120.6%" width="117.5%" x="-8.8%" y="-7.4%"><feOffset dy=".5" in="SourceAlpha" result="shadowOffsetOuter1"/><feGaussianBlur in="shadowOffsetOuter1" result="shadowBlurOuter1" stdDeviation=".5"/><feColorMatrix in="shadowBlurOuter1" values="0 0 0 0 0   0 0 0 0 0   0 0 0 0 0  0 0 0 0.204257246 0"/></filter></defs><g fill="none" fill-rule="nonzero"><g><use fill="#000" filter="url(#c)" xlink:href="#b"/><use fill="#ff4081" fill-rule="evenodd" xlink:href="#b"/><use fill="url(#a)" fill-rule="evenodd" xlink:href="#b"/><circle cx="16" cy="15" r="14.5" stroke="#000" stroke-opacity=".097"/></g><g><use fill="#000" filter="url(#e)" xlink:href="#d"/><use fill="#fff" fill-rule="evenodd" xlink:href="#d"/></g></g></svg>

<svg xmlns="http://www.w3.org/2000/svg" xmlns:xlink="http://www.w3.org/1999/xlink" width="32" height="32" viewBox="0 0 32 32">
  <defs>
    <linearGradient id="tnt-c" x1="50%" x2="50%" y1="0%" y2="100%">
      <stop offset="0%" stop-color="#FFF" stop-opacity=".5"/>
      <stop offset="100%" stop-opacity=".5"/>
    </linearGradient>
    <circle id="tnt-b" cx="16" cy="15" r="15"/>
    <filter id="tnt-a" width="111.7%" height="111.7%" x="-5.8%" y="-4.2%" filterUnits="objectBoundingBox">
      <feOffset dy=".5" in="SourceAlpha" result="shadowOffsetOuter1"/>
      <feGaussianBlur in="shadowOffsetOuter1" result="shadowBlurOuter1" stdDeviation=".5"/>
      <feComposite in="shadowBlurOuter1" in2="SourceAlpha" operator="out" result="shadowBlurOuter1"/>
      <feColorMatrix in="shadowBlurOuter1" values="0 0 0 0 0   0 0 0 0 0   0 0 0 0 0  0 0 0 0.199473505 0"/>
    </filter>
    <path id="tnt-e" d="M13.890625,20.5025869 L14.046875,24 C14.046875,24 15.921875,23.6820534 17.875,24 L18.03125,20.5025869 L13.890625,20.5025869 Z M11.625,17.8000405 C11.625,17.8000405 17.09375,17.3231205 20.296875,17.8000405 L20.609375,13.9846807 C17.5669124,13.7487421 14.5112126,13.7487421 11.46875,13.9846807 L11.625,17.8000405 Z M26,7.94369453 C26,7.94369453 15.53125,5.71806802 6,8.10266785 L6.703125,12.4744342 L7.5625,10.8052143 C7.5625,10.8052143 16.546875,9.45394108 24.59375,10.8052143 L25.375,12.4744342 L26,7.94369453 Z"/>
    <filter id="tnt-d" width="117.5%" height="120.6%" x="-8.8%" y="-7.4%" filterUnits="objectBoundingBox">
      <feOffset dy=".5" in="SourceAlpha" result="shadowOffsetOuter1"/>
      <feGaussianBlur in="shadowOffsetOuter1" result="shadowBlurOuter1" stdDeviation=".5"/>
      <feColorMatrix in="shadowBlurOuter1" values="0 0 0 0 0   0 0 0 0 0   0 0 0 0 0  0 0 0 0.204257246 0"/>
    </filter>
  </defs>
  <g fill="none" fill-rule="evenodd">
    <g fill-rule="nonzero">
      <use fill="#000" filter="url(#tnt-a)" xlink:href="#tnt-b"/>
      <use fill="#FF4081" fill-rule="evenodd" xlink:href="#tnt-b"/>
      <use fill="url(#tnt-c)" fill-rule="evenodd" style="mix-blend-mode:soft-light" xlink:href="#tnt-b"/>
      <circle cx="16" cy="15" r="14.5" stroke="#000" stroke-opacity=".097"/>
    </g>
    <g fill-rule="nonzero">
      <use fill="#000" filter="url(#tnt-d)" xlink:href="#tnt-e"/>
      <use fill="#FFF" fill-rule="evenodd" xlink:href="#tnt-e"/>
    </g>
  </g>
</svg>
